X: 10382
T: The STOREMONT LADS.     a Strathspey.
R: strathspey
B: "Edinburgh Repository of Music" v.1 p.38 #2
F: http://digital.nls.uk/special-collections-of-printed-music/pageturner.cfm?id=87776133
Z: 2015 John Chambers <jc:trillian.mit.edu>
M: C
L: 1/8
K: F
f |\
c<ATc>A FA/B/ c2 | d<Bd>B GB/c/ d2 |\
Tf>adf .c.F.A.c | {e}d2c/d/ fA G2 F :|\
A |\
Fffe fFA2 | Gg-gf gGg2 |
Tfadf cFAc | d<cf>A {A}G2F2 |\
F>f e/f/g/e/ fF A2 | G>g ^f/g/a/f/ gG g2 |\
=fa/f/ df/d/ cFAc | dc/d/ fA/B/ {A}TG2 F |]

%%sep 2 1 500
%%sep 1 1 500

